storage/app/icons/phosphoricons/light/desk-light.svg

<svg xmlns="http://www.w3.org/2000/svg" fill="currentColor" viewBox="0 0 256 256"><path d="M248 66H8a6 6 0 0 0 0 12h10v114a6 6 0 0 0 12 0v-50h196v50a6 6 0 0 0 12 0V78h10a6 6 0 0 0 0-12M30 78h92v52H30Zm196 52h-92V78h92ZM94 104a6 6 0 0 1-6 6H64a6 6 0 0 1 0-12h24a6 6 0 0 1 6 6m68 0a6 6 0 0 1 6-6h24a6 6 0 0 1 0 12h-24a6 6 0 0 1-6-6"/></svg>

<svg xmlns="http://www.w3.org/2000/svg" viewBox="0 0 256 256" fill="currentColor"><path d="M248,66H8A6,6,0,0,0,8,78H18V192a6,6,0,0,0,12,0V142H226v50a6,6,0,0,0,12,0V78h10a6,6,0,0,0,0-12ZM30,78h92v52H30Zm196,52H134V78h92ZM94,104a6,6,0,0,1-6,6H64a6,6,0,0,1,0-12H88A6,6,0,0,1,94,104Zm68,0a6,6,0,0,1,6-6h24a6,6,0,0,1,0,12H168A6,6,0,0,1,162,104Z"/></svg>
